Origami/24x24/apps/emerald-theme-manager-icon.svg

<svg width="24" height="24" version="1" xmlns="http://www.w3.org/2000/svg">
 <path d="m7.4285444 3.5000005a1.1429779 1.2001345 0 0 0 -0.83371 0.379106l-4.285739 4.8000589a1.1429779 1.2001345 0 0 0 -0.032366 1.6037306l8.8571946 10.800131a1.1429779 1.2001345 0 0 0 1.732151 0l8.857193-10.800131a1.1429779 1.2001345 0 0 0 -0.03236 -1.6037306l-4.285742-4.8000589a1.1429779 1.2001345 0 0 0 -0.833713 -0.379106h-4.571454-4.5714546z" style="opacity:.2"/>
 <path d="m7.4285444 3.0000004a1.1429779 1.2001345 0 0 0 -0.83371 0.379106l-4.285739 4.8000589a1.1429779 1.2001345 0 0 0 -0.0323657 1.6037299l8.8571943 10.800131a1.1429779 1.2001345 0 0 0 1.732151 0l8.857193-10.800131a1.1429779 1.2001345 0 0 0 -0.032361 -1.6037299l-4.285741-4.8000589a1.1429779 1.2001345 0 0 0 -0.833713 -0.379106h-4.571454-4.5714546z" style="fill:#87d53c"/>
 <path d="M 7.4277344 3 A 1.1429779 1.2001345 0 0 0 6.5957031 3.3789062 L 2.3085938 8.1796875 A 1.1429779 1.2001345 0 0 0 2.0019531 9 L 22 9 A 1.1429779 1.2001345 0 0 0 21.691406 8.1796875 L 17.404297 3.3789062 A 1.1429779 1.2001345 0 0 0 16.572266 3 L 12 3 L 7.4277344 3 z" style="opacity:.2"/>
 <path d="m12 3 5 6-9.9999999-2e-7z" style="fill:#87d53c"/>
 <path d="m12 21 5-12-9.9999999 2e-7z" style="opacity:.2"/>
 <path d="m7.4277344 3a1.1429779 1.2001345 0 0 0 -0.8320313 0.3789062l-4.2871093 4.8007813a1.1429779 1.2001345 0 0 0 -0.28125 1.0703125 1.1429779 1.2001345 0 0 1 0.28125 -0.5703125l4.2871093-4.8007813a1.1429779 1.2001345 0 0 1 0.8320313 -0.3789062h4.5722656 4.572266a1.1429779 1.2001345 0 0 1 0.832031 0.3789062l4.287109 4.8007813a1.1429779 1.2001345 0 0 1 0.283203 0.5703125 1.1429779 1.2001345 0 0 0 -0.283203 -1.0703125l-4.287109-4.8007813a1.1429779 1.2001345 0 0 0 -0.832031 -0.3789062h-4.572266-4.5722656z" style="fill:#ffffff;opacity:.2"/>
</svg>

<svg xmlns="http://www.w3.org/2000/svg" width="24" height="24" version="1">
 <path style="opacity:0.2" d="m 7.4285444,3.5000005 a 1.1429779,1.2001345 0 0 0 -0.83371,0.379106 l -4.285739,4.8000589 a 1.1429779,1.2001345 0 0 0 -0.032366,1.6037306 l 8.8571946,10.800131 a 1.1429779,1.2001345 0 0 0 1.732151,0 L 21.723268,10.282896 A 1.1429779,1.2001345 0 0 0 21.690908,8.6791654 L 17.405166,3.8791065 a 1.1429779,1.2001345 0 0 0 -0.833713,-0.379106 l -4.571454,0 -4.5714546,0 z"/>
 <path style="fill:#87d53c" d="m 7.4285444,3.0000004 a 1.1429779,1.2001345 0 0 0 -0.83371,0.379106 L 2.3090954,8.1791653 A 1.1429779,1.2001345 0 0 0 2.2767297,9.7828952 L 11.133924,20.583026 a 1.1429779,1.2001345 0 0 0 1.732151,0 L 21.723268,9.7828952 A 1.1429779,1.2001345 0 0 0 21.690907,8.1791653 L 17.405166,3.3791064 a 1.1429779,1.2001345 0 0 0 -0.833713,-0.379106 l -4.571454,0 -4.5714546,0 z"/>
 <path style="opacity:0.2" d="M 7.4277344 3 A 1.1429779 1.2001345 0 0 0 6.5957031 3.3789062 L 2.3085938 8.1796875 A 1.1429779 1.2001345 0 0 0 2.0019531 9 L 22 9 A 1.1429779 1.2001345 0 0 0 21.691406 8.1796875 L 17.404297 3.3789062 A 1.1429779 1.2001345 0 0 0 16.572266 3 L 12 3 L 7.4277344 3 z"/>
 <path style="fill:#87d53c" d="m 12,3 5,6 -9.9999999,-2e-7 z"/>
 <path style="opacity:0.2" d="m 12,21 5,-12 -9.9999999,2e-7 z"/>
 <path style="opacity:0.2;fill:#ffffff" d="M 7.4277344 3 A 1.1429779 1.2001345 0 0 0 6.5957031 3.3789062 L 2.3085938 8.1796875 A 1.1429779 1.2001345 0 0 0 2.0273438 9.25 A 1.1429779 1.2001345 0 0 1 2.3085938 8.6796875 L 6.5957031 3.8789062 A 1.1429779 1.2001345 0 0 1 7.4277344 3.5 L 12 3.5 L 16.572266 3.5 A 1.1429779 1.2001345 0 0 1 17.404297 3.8789062 L 21.691406 8.6796875 A 1.1429779 1.2001345 0 0 1 21.974609 9.25 A 1.1429779 1.2001345 0 0 0 21.691406 8.1796875 L 17.404297 3.3789062 A 1.1429779 1.2001345 0 0 0 16.572266 3 L 12 3 L 7.4277344 3 z"/>
</svg>
